X:1
T:Singing I Go
T:Singing I Go
T:William James Kirkpatrick
T:Eliza Edmunds Hewitt, 1898
T:Public Domain Courtesy of the Cyber Hymnal™
C:William James Kirkpatrick
Z:Public Domain
Z:Courtesy of the Cyber Hymnal™
%%score ( 1 2 ) ( 3 4 )
L:1/8
Q:1/4=100
M:6/8
K:G
V:1 treble 
V:2 treble 
V:3 bass 
V:4 bass 
V:1
 D | [B,G]2 [B,G] ([B,G][CA])[DB] | [B,D]2 [CE] [B,D]2 [B,D] | [DG]2 [DG] ([DB][CA])[B,G] | %4
w: 1.~The|trust- ing heart * to|Je- sus clings, Nor|a- ny ill * fore-|
w: 2.~The|pass- ing days * bring|ma- ny cares, “Fear|not,” I hear * Him|
w: 3.~He|tells me of * my|Fa- ther’s love, And|ne- ver slum- * ber-|
w: 4.~When|to the throne * of|grace I flee, I|find the pro- * mise|
 [DA]3- [DA]2 D | [B,G]2 [B,G] ([B,G][CA])[DB] | [B,D]2 [CE] [B,D]2 [B,D] | [CE]2 [Ec] [DB]2 [CA] | %8
w: bodes, * But|at the cross * of|Cal- v’ry, sings, Praise|God for lift- ed|
w: say, * And|when my fears * are|turned to prayers, The|bur- dens slip a-|
w: ing * eye,|My ev- er- * last-|ing king above Will|all my needs sup-|
w: true, * The|migh- ty arms * up-|hold- ing me Will|bear my burd- ens|
 [B,G]3- [B,G]2 z ||"^Refrain" [GB][Gd][Gd] [Gd]2 [Gd] | [GB]2 [Gd] [DG]3 | [GB][GA]G [Fd]3 | %12
w: loads! *||||
w: way. *||||
w: ply. *||||
w: too. *||||
 G[FA][GB] [FA]3 | [GB][Gd][Gd] [Gd]2 [Gd] | [GB]2 [Gd] [DG]2 D | [CE][CE][Gc] [GB][GB][FA] | %16
w: ||||
w: ||||
w: ||||
w: ||||
 [DG]4- [DG] |] %17
w: |
w: |
w: |
w: |
V:2
 D | x6 | x6 | x6 | x5 D | x6 | x6 | x6 | x6 || x6 | x6 | x2 G x3 | G x5 | x6 | x5 D | x6 | x5 |] %17
V:3
 D, | [G,,D,]2 [G,,D,] [G,,D,]2 [G,,D,] | [G,,G,]2 [G,,G,] [G,,G,]2 [G,,G,] | %3
w: ~|~ ~ ~ ~|~ ~ ~ ~|
 [B,,G,]2 [B,,G,] [G,,G,]2 [G,,G,] | [D,F,]3- [D,F,]2 D, | [G,,D,]2 [G,,D,] [G,,D,]2 [G,,G,] | %6
w: ~ ~ ~ ~|~ * ~|~ ~ ~ ~|
 [G,,G,]2 [G,,G,] [G,,G,]2 [G,,G,] | [C,G,]2 [C,G,] [D,G,]2 [D,F,] | [G,,G,]3- [G,,G,]2 z || %9
w: ~ ~ ~ ~|~ ~ ~ ~|~ *|
 [G,D][G,B,][G,B,] [G,B,]2 [G,B,] | [G,D]2 [G,B,] [G,B,]3 | [G,D][G,C][G,B,] [D,A,]3 | %12
w: Sing- ing I go a-|long life’s road,|Prais- ing the Lord,|
 [B,D][A,D][G,D] [D,D]3 | [G,D][G,B,][G,B,] [G,B,]2 [G,B,] | [G,D]2 [G,B,] [G,B,]2 [B,,G,] | %15
w: prais- ing the Lord,|Sing- ing I go a-|long life’s road, For|
 [C,G,][C,G,][C,E] [D,D][D,D][D,C] | [F,,B,-]4 [G,,B,] |] %17
w: Je- sus has lift- ed my|load. *|
V:4
 D, | x6 | x6 | x6 | x5 D, | x6 | x6 | x6 | x6 || x6 | x6 | x6 | x6 | x6 | x6 | x6 | x5 |] %17

